static/dist/images/icons/add-to-list.svg

<svg xmlns="http://www.w3.org/2000/svg" viewBox="0 0 20 20"><path d="M19.4 9H16V5.6c0-.6-.4-.6-1-.6s-1 0-1 .6V9h-3.4c-.6 0-.6.4-.6 1s0 1 .6 1H14v3.4c0 .6.4.6 1 .6s1 0 1-.6V11h3.4c.6 0 .6-.4.6-1s0-1-.6-1zm-12 0H.6C0 9 0 9.4 0 10s0 1 .6 1h6.8c.6 0 .6-.4.6-1s0-1-.6-1zm0 5H.6c-.6 0-.6.4-.6 1s0 1 .6 1h6.8c.6 0 .6-.4.6-1s0-1-.6-1zm0-10H.6C0 4 0 4.4 0 5s0 1 .6 1h6.8C8 6 8 5.6 8 5s0-1-.6-1z"/></svg>

<?xml version="1.0" encoding="utf-8"?>
<!-- Generator: Adobe Illustrator 18.1.1, SVG Export Plug-In . SVG Version: 6.00 Build 0)  -->
<!DOCTYPE svg PUBLIC "-//W3C//DTD SVG 1.1//EN" "http://www.w3.org/Graphics/SVG/1.1/DTD/svg11.dtd">
<svg version="1.1" id="Add_to_list" xmlns="http://www.w3.org/2000/svg" xmlns:xlink="http://www.w3.org/1999/xlink" x="0px"
	 y="0px" viewBox="0 0 20 20" enable-background="new 0 0 20 20" xml:space="preserve">
<path d="M19.4,9H16V5.6C16,5,15.6,5,15,5s-1,0-1,0.6V9h-3.4C10,9,10,9.4,10,10s0,1,0.6,1H14v3.4c0,0.6,0.4,0.6,1,0.6s1,0,1-0.6V11
	h3.4c0.6,0,0.6-0.4,0.6-1S20,9,19.4,9z M7.4,9H0.6C0,9,0,9.4,0,10s0,1,0.6,1h6.8C8,11,8,10.6,8,10S8,9,7.4,9z M7.4,14H0.6
	C0,14,0,14.4,0,15s0,1,0.6,1h6.8C8,16,8,15.6,8,15S8,14,7.4,14z M7.4,4H0.6C0,4,0,4.4,0,5s0,1,0.6,1h6.8C8,6,8,5.6,8,5S8,4,7.4,4z"
	/>
</svg>
